X: 36723
T: Sheep In The Boat, The
R: jig
M: 6/8
K: Edorian
|:BEF G3|FED def|edB BAF|AFE EFA|
BEF G3|FED def|edB BAF|1 AFA FED:|2 AFE E2A||
|:Bef ede|f2f def|edB BAF|A2A FED|
[1 Bef ede|f2f def|edB BAF|AFE E2A:|
[2 BEF G3|FED def|edB BAF|AFE E2B||

